X:637
T:
S:Från Gotlands fornsal.
R:kadrilj
O:Gotland
M:2/4
L:1/16
K:Bb
F2|B2BA B2d2|B2F2 B2d2|c2ed c2cB|ABcB AGFE|D2BA B2d2|B2F2 B2d2|c2f2
=efge|f2f2f2::c2|c2c=B c2d2|efed e2c2|B2BA B2c2|ded^c d2f2|B2BA B2d2|B2F2
B2d2|c2ec ABcA|B2B2B2::de|fgf=e f2b2|f6 df|efed cgfe|defg f2 de|fgf=e
f2b2|f6ed|c2ec ABcA|B2B2B2::cd|e2ed c2cB|A2AG F2GA|B2F2 d2B2|cBAG F2 cd|e2ed
c2cB|A2AG F2GA|B2Bd cecA|B2B2B2:|

